blockchains/aeternity/logo.svg

<svg fill="none" height="250" viewBox="0 0 250 250" width="250" xmlns="http://www.w3.org/2000/svg" xmlns:xlink="http://www.w3.org/1999/xlink"><clipPath id="a"><path d="m0 0h250v250h-250z"/></clipPath><clipPath id="b"><path d="m31.25 78.3992h187.5v88.8158h-187.5z"/></clipPath><g clip-path="url(#a)"><path d="m125 250c69.036 0 125-55.964 125-125 0-69.0356-55.964-125-125-125-69.0356 0-125 55.9644-125 125 0 69.036 55.9644 125 125 125z" fill="#f4f4f4"/><g clip-path="url(#b)" fill="#de3f6b"><path d="m71.75 78.3992h7.7062c12.0375 1.1905 23.1748 7.2942 31.4248 16.0813 17.119 18.1035 26.531 43.6525 48.319 57.1255 15.75 9.751 37.781 1.776 45.525-14.683 3.937-.075 7.894-.075 11.831-.057-5.419 16.724-21.206 28.743-38.475 30.349h-6.356c-10.631-.888-20.963-5.008-29.006-12.132-11.682-9.978-19.182-23.659-28.257-35.847-7.8-10.772-15.7683-22.8847-28.687-27.779-15.9563-6.0282-35.4563 3.4014-41.2688 19.426-5.1187 13.19-.9562 29.555 10.4813 38.002 8.5687 6.689 20.5125 9.184 30.8062 5.291 11.4375-4.157 19.9313-13.606 26.4373-23.621 2.569 3.704 5.063 7.464 7.538 11.244-10.125 12.849-24.169 23.885-40.8753 25.416h-6.8437c-21.0563-1.474-39.3563-19.502-40.8-40.799v-6.973c1.3687-21.2587 19.425-39.4943 40.5-41.0438z"/><path d="m171.296 78.3987h6.393c21.244 1.3984 39.319 19.7851 41.063 41.0823v10.922c-17.531.17-35.081.057-52.613.076.019-3.194.019-6.369 0-9.562 13.857-.038 27.694.057 41.532-.038-.975-5.65-2.25-11.433-5.569-16.214-8.1-12.4715-25.219-17.5737-38.906-12.1692-10.913 4.0818-19.125 13.0202-25.463 22.5632-2.437-3.534-4.856-7.105-7.2-10.715 9.994-13.0387 23.944-24.3202 40.763-25.9453"/></g></g></svg>

<svg width="250" height="250" viewBox="0 0 250 250" fill="none" xmlns="http://www.w3.org/2000/svg">
<g clip-path="url(#clip0_6_12)">
<path d="M125 250C194.036 250 250 194.036 250 125C250 55.9644 194.036 0 125 0C55.9644 0 0 55.9644 0 125C0 194.036 55.9644 250 125 250Z" fill="#F4F4F4"/>
<g clip-path="url(#clip1_6_12)">
<path d="M71.75 78.3992H79.4562C91.4937 79.5897 102.631 85.6934 110.881 94.4805C128 112.584 137.412 138.133 159.2 151.606C174.95 161.357 196.981 153.382 204.725 136.923C208.662 136.848 212.619 136.848 216.556 136.866C211.137 153.59 195.35 165.609 178.081 167.215H171.725C161.094 166.327 150.762 162.207 142.719 155.083C131.037 145.105 123.537 131.424 114.462 119.236C106.662 108.464 98.6937 96.3513 85.775 91.457C69.8187 85.4288 50.3187 94.8584 44.5062 110.883C39.3875 124.073 43.55 140.438 54.9875 148.885C63.5562 155.574 75.5 158.069 85.7937 154.176C97.2312 150.019 105.725 140.57 112.231 130.555C114.8 134.259 117.294 138.019 119.769 141.799C109.644 154.648 95.6 165.684 78.8937 167.215H72.05C50.9937 165.741 32.6937 147.713 31.25 126.416V119.443C32.6187 98.1843 50.675 79.9487 71.75 78.3992Z" fill="#DE3F6B"/>
<path d="M171.296 78.3987H177.689C198.933 79.7971 217.008 98.1838 218.752 119.481V130.403C201.221 130.573 183.671 130.46 166.139 130.479C166.158 127.285 166.158 124.11 166.139 120.917C179.996 120.879 193.833 120.974 207.671 120.879C206.696 115.229 205.421 109.446 202.102 104.665C194.002 92.1935 176.883 87.0913 163.196 92.4958C152.283 96.5776 144.071 105.516 137.733 115.059C135.296 111.525 132.877 107.954 130.533 104.344C140.527 91.3053 154.477 80.0238 171.296 78.3987" fill="#DE3F6B"/>
</g>
</g>
<defs>
<clipPath id="clip0_6_12">
<rect width="250" height="250" fill="white"/>
</clipPath>
<clipPath id="clip1_6_12">
<rect width="187.5" height="88.8158" fill="white" transform="translate(31.25 78.3992)"/>
</clipPath>
</defs>
</svg>
